docs/img/lock.svg

<svg width="16" height="21" viewBox="0 0 16 21" fill="none" xmlns="http://www.w3.org/2000/svg"><path opacity=".3" fill-rule="evenodd" clip-rule="evenodd" d="M14 7h-1V5c0-2.8-2.2-5-5-5S3 2.2 3 5v2H2C.9 7 0 7.9 0 9v10c0 1.1.9 2 2 2h12c1.1 0 2-.9 2-2V9c0-1.1-.9-2-2-2zm-6 9c-1.1 0-2-.9-2-2s.9-2 2-2 2 .9 2 2-.9 2-2 2zm3.1-9H4.9V5c0-1.7 1.4-3.1 3.1-3.1 1.7 0 3.1 1.4 3.1 3.1v2z" fill="#757575"/></svg>

<svg width="16" height="21" viewBox="0 0 16 21" fill="none" xmlns="http://www.w3.org/2000/svg">
<path opacity="0.3" fill-rule="evenodd" clip-rule="evenodd" d="M14 7H13V5C13 2.2 10.8 0 8 0C5.2 0 3 2.2 3 5V7H2C0.9 7 0 7.9 0 9V19C0 20.1 0.9 21 2 21H14C15.1 21 16 20.1 16 19V9C16 7.9 15.1 7 14 7ZM8 16C6.9 16 6 15.1 6 14C6 12.9 6.9 12 8 12C9.1 12 10 12.9 10 14C10 15.1 9.1 16 8 16ZM11.1 7H4.9V5C4.9 3.3 6.3 1.9 8 1.9C9.7 1.9 11.1 3.3 11.1 5V7Z" fill="#757575"/>
</svg>
